X: 1
T: String Quartet in C major opus 1 no 6 mvt 5
C: Franz Joseph Haydn
%%abc-version 2.0
%%abcx-abcm2ps-target-version 5.9.1 (29 Sep 2008)
%%abc-creator hum2abc beta
%%abcx-conversion-date 2021/02/14 14:38:18
%%abc-copyright Copyright (c) 1994, 2000 Center for Computer Assisted Research in the Humanities
%%abc-edited-by Frances Bennion
%%abcx-initial-encoding-date 1997/04/15
%%gracespace 0 6 6
%%humdrum-veritas 2279735810
%%humdrum-veritas-data 4245540297
%%linebreak <none>
%%barnumbers 0
L: 1/8
M: 2/4
N: Derived from op01n6-05.krn
Q: "Finale: Presto"
%%staves [1 2 3 4]
V: 1
V: 2
V: 3 clef=alto
V: 4 clef=bass
K: C
[V:1]z3 C [I:setbarnb1]|
[V:2]z3 z |
[V:3]z3 z |
[V:4]z3 z |
[V:1]EG ce |
[V:2]C2 z2 |
[V:3]E,2 z2 |
[V:4]C,2 z2 |
[V:1]g3 (3a/g/f/ |
[V:2]ee fd |
[V:3]cc dG |
[V:4]CC B,B, |
[V:1]eG ce |
[V:2]c2 z2 |
[V:3]G2 z2 |
[V:4]C2 z2 |
[V:1]g3 (3a/g/f/ |
[V:2]ee fd |
[V:3]cc dG |
[V:4]CC B,B, |
[V:1]ec' c'c' |
[V:2]c2 zc- |
[V:3]G2 zG |
[V:4]C2 zE, |
[V:1]d>e fe/d/ |
[V:2]cc2 B |
[V:3]AG FF |
[V:4]F,E, D,G, |
[V:1]ec' c'c' |
[V:2]c2 zc- |
[V:3]E2 zG |
[V:4]C,2 zE, |
[V:1]d>e fe/d/ |
[V:2]cc2 B |
[V:3]AG FF |
[V:4]F,E, D,G, |
[V:1]cC EG |
[V:2]cC EG |
[V:3]EC EG |
[V:4]C,C, E,G, |
[V:1]c2 ze |
[V:2]c2 z2 |
[V:3]c2 z2 |
[V:4]C2 z2 |
[V:1]^FG AB |
[V:2]D/D/D/D/ D/D/D/D/ |
[V:3]CB, ^F,G, |
[V:4]z4 |
[V:1]cB zd |
[V:2]^FG z2 |
[V:3]A,G, z2 |
[V:4]D,G, z2 |
[V:1]^FG AB |
[V:2]D/D/D/D/ D/D/D/D/ |
[V:3]CB, ^F,G, |
[V:4]z4 |
[V:1]cB zd |
[V:2]^FG z2 |
[V:3]A,G, z2 |
[V:4]D,G, zB, |
[V:1]e4 |
[V:2]GG GG |
[V:3]CC CC |
[V:4]CC CC |
[V:1]^f4 |
[V:2]cc cc |
[V:3]DD DD |
[V:4]A,A, A,A, |
[V:1]g4 |
[V:2]dd dd |
[V:3]DD DD |
[V:4]B,B, B,B, |
[V:1]a3 b/c'/ |
[V:2]dd dd |
[V:3]DD DD |
[V:4]^F,F, F,F, |
[V:1]b2 d'2 |
[V:2]dd GG |
[V:3]DD B,B, |
[V:4]G,G, B,,B,, |
[V:1]c'b/a/ g^f/e/ |
[V:2]E2 z2 |
[V:3]G,2 z2 |
[V:4]C,2 z2 |
[V:1]d2 a2 |
[V:2]zG2 ^F |
[V:3]zB, CD |
[V:4]zB,, C,D, |
[V:1]g2 bb/d'/ |
[V:2]G2 gg/b/ |
[V:3]G,2 z2 |
[V:4]G,,2 z2 |
[V:1]b2 gg/b/ |
[V:2]g2 BB/d/ |
[V:3]z4 |
[V:4]z4 |
[V:1]g2 GG/A/ |
[V:2]B2 GG/A/ |
[V:3]z2 GG/A/ |
[V:4]z2 G,G,/A,/ |
[V:1]Be cd |
[V:2]Be cd |
[V:3]Be cd |
[V:4]B,E CD |
[V:1]G2 zz |
[V:2]G2 zG |
[V:3]G2 zz |
[V:4]G,2 zz |
[V:1]z4 |
[V:2]g3 (3a/g/f/ |
[V:3]e3 (3f/e/d/ |
[V:4]G,G, G,G, |
[V:1]zc' e'2 |
[V:2]e2 zG |
[V:3]c2 z2 |
[V:4]G,G, G,G, |
[V:1]z4 |
[V:2]f3 (3g/f/e/ |
[V:3]d3 (3e/d/c/ |
[V:4]G,G, G,G, |
[V:1]zb d'G |
[V:2]d2 zG |
[V:3]B2 zG |
[V:4]G,G, G,G, |
[V:1]cG eB |
[V:2]cG eB |
[V:3]cG eB |
[V:4]CG, EB, |
[V:1]cG eB |
[V:2]cG eB |
[V:3]cG eB |
[V:4]CG, EB, |
[V:1]cG EC |
[V:2]cG EC |
[V:3]cG EC |
[V:4]CG, E,C, |
[V:1]G2 z2 |
[V:2]G2 z2 |
[V:3]G2 zG, |
[V:4]G,2 z2 |
[V:1]z4 |
[V:2]_E2 zE |
[V:3]C_E Gc |
[V:4]C,2 z^F, |
[V:1]z3 G, |
[V:2]_E2 DC |
[V:3]c2 Bz |
[V:4]G,2 G,,2 |
[V:1]C_E Gc |
[V:2]_EG c_e |
[V:3]z3 A |
[V:4]z3 ^F, |
[V:1]c2 B_E |
[V:2]_e2 dC |
[V:3]G2 G,2 |
[V:4]G,2 G,,2 |
[V:1]Gc _eg |
[V:2]_EG c_e |
[V:3]z4 |
[V:4]z3 C |
[V:1]g_a zf |
[V:2]ef zd |
[V:3]zC DF |
[V:4]F,2 _B,2 |
[V:1]fg z_e |
[V:2]d_e zc |
[V:3]z_B, C_E |
[V:4]_E,2 _A,2 |
[V:1]_ef zd |
[V:2]cd zB |
[V:3]zA, B,D |
[V:4]D,2 G,2 |
[V:1]d_e z^F |
[V:2]Bc zC |
[V:3]zG, C_A, |
[V:4]C,2 _A,,2 |
[V:1]G^F GF |
[V:2]B,2 zC |
[V:3]G,2 z_A, |
[V:4]G,,2 z_A,, |
[V:1]G2 zC |
[V:2]B,2 z2 |
[V:3]G,2 z2 |
[V:4]G,,2 z2 |
[V:1]EG ce |
[V:2]C2 z2 |
[V:3]E,2 z2 |
[V:4]C,2 z2 |
[V:1]g3 (3a/g/f/ |
[V:2]ee fd |
[V:3]cc dG |
[V:4]CC B,B, |
[V:1]eG ce |
[V:2]c2 z2 |
[V:3]G2 z2 |
[V:4]C2 z2 |
[V:1]g3 (3a/g/f/ |
[V:2]ee fd |
[V:3]cc dG |
[V:4]CC B,B, |
[V:1]ec' c'c' |
[V:2]c2 zc- |
[V:3]G2 zG |
[V:4]C2 zE, |
[V:1]d>e fe/d/ |
[V:2]cc2 B |
[V:3]AG FF |
[V:4]F,E, D,G, |
[V:1]ec' c'c' |
[V:2]c2 zc- |
[V:3]E2 zG |
[V:4]C,2 zE, |
[V:1]d>e fe/d/ |
[V:2]cc2 B |
[V:3]AG FF |
[V:4]F,E, D,G, |
[V:1]e>f gf/e/ |
[V:2]c>d ed/c/ |
[V:3]E2 zc |
[V:4]C,2 zC |
[V:1]a>g f/e/d/c/ |
[V:2]f>e d/c/B/A/ |
[V:3]F2 z2 |
[V:4]F,2 z2 |
[V:1]BG Bd |
[V:2]GG Bd |
[V:3]GG, B,D |
[V:4]G,G,, B,,D, |
[V:1]g2 zg |
[V:2]g2 z2 |
[V:3]G2 z2 |
[V:4]G,2 z2 |
[V:1]Bc de |
[V:2]G/G/G/G/ G/G/G/G/ |
[V:3]FE B,C |
[V:4]z4 |
[V:1]fe zg |
[V:2]Bc z2 |
[V:3]DC z2 |
[V:4]G,C z2 |
[V:1]Bc de |
[V:2]G/G/G/G/ G/G/G/G/ |
[V:3]FE B,C |
[V:4]z4 |
[V:1]fe zg |
[V:2]Bc z2 |
[V:3]DC z2 |
[V:4]G,C z2 |
[V:1]a4 |
[V:2]cc cc |
[V:3]FF FF |
[V:4]F,F, F,F, |
[V:1]b4 |
[V:2]fF FF |
[V:3]DD DD |
[V:4]D,D, D,D, |
[V:1]c'3 d'/c'/ |
[V:2]GG GG |
[V:3]G,G, G,G, |
[V:4]E,E, E,E, |
[V:1]d'2 f2 |
[V:2]GG GG |
[V:3]G,G, G,G, |
[V:4]B,,B, B,B, |
[V:1]e2 g2 |
[V:2]GG cc |
[V:3]G,G, G,G, |
[V:4]CC E,E, |
[V:1]fe/d/ cB/A/ |
[V:2]A2 z2 |
[V:3]F,2 z2 |
[V:4]F,2 z2 |
[V:1]G2 d2 |
[V:2]zc2 B |
[V:3]zE FG |
[V:4]zE, F,G, |
[V:1]c2 ee/g/ |
[V:2]c2 cc/e/ |
[V:3]C2 z2 |
[V:4]C,2 z2 |
[V:1]e2 cc/e/ |
[V:2]c2 EE/G/ |
[V:3]z4 |
[V:4]z4 |
[V:1]c2 CC/D/ |
[V:2]E2 CC/D/ |
[V:3]z2 CC/D/ |
[V:4]z2 C,C,/D,/ |
[V:1]EA G^F |
[V:2]EA G^F |
[V:3]EA G^F |
[V:4]E,A, G,^F, |
[V:1]G2 ee/g/ |
[V:2]G2 cc/e/ |
[V:3]G2 z2 |
[V:4]G,2 z2 |
[V:1]e2 cc/e/ |
[V:2]c2 EE/G/ |
[V:3]z4 |
[V:4]z4 |
[V:1]c2 CC/D/ |
[V:2]E2 CC/D/ |
[V:3]z2 CC/D/ |
[V:4]z2 C,C,/D,/ |
[V:1]EA FG |
[V:2]EA FG |
[V:3]EA FG |
[V:4]E,A, F,G, |
[V:1]C2 z2 |]
[V:2]C2 z2 |]
[V:3]C2 z2 |]
[V:4]C,2 z2 |]

